Numix-GalliumOS/48/emblems/emblem-desktop.svg

<?xml version="1.0" encoding="UTF-8" standalone="no"?>
<svg
   xmlns:dc="http://purl.org/dc/elements/1.1/"
   xmlns:cc="http://creativecommons.org/ns#"
   xmlns:rdf="http://www.w3.org/1999/02/22-rdf-syntax-ns#"
   xmlns:svg="http://www.w3.org/2000/svg"
   xmlns="http://www.w3.org/2000/svg"
   xmlns:sodipodi="http://sodipodi.sourceforge.net/DTD/sodipodi-0.dtd"
   xmlns:inkscape="http://www.inkscape.org/namespaces/inkscape"
   width="48"
   viewBox="0 0 48 48"
   height="48"
   id="svg2"
   version="1.1"
   inkscape:version="0.91 r13725"
   sodipodi:docname="emblem-desktop.svg">
  <metadata
     id="metadata12">
    <rdf:RDF>
      <cc:Work
         rdf:about="">
        <dc:format>image/svg+xml</dc:format>
        <dc:type
           rdf:resource="http://purl.org/dc/dcmitype/StillImage" />
      </cc:Work>
    </rdf:RDF>
  </metadata>
  <defs
     id="defs10" />
  <sodipodi:namedview
     pagecolor="#ffffff"
     bordercolor="#666666"
     borderopacity="1"
     objecttolerance="10"
     gridtolerance="10"
     guidetolerance="10"
     inkscape:pageopacity="0"
     inkscape:pageshadow="2"
     inkscape:window-width="1366"
     inkscape:window-height="704"
     id="namedview8"
     showgrid="false"
     inkscape:object-nodes="true"
     inkscape:zoom="1"
     inkscape:cx="24.667495"
     inkscape:cy="24.390751"
     inkscape:window-x="0"
     inkscape:window-y="27"
     inkscape:window-maximized="1"
     inkscape:current-layer="svg2">
    <inkscape:grid
       type="xygrid"
       id="grid4140" />
  </sodipodi:namedview>
  <path
     style="fill:#fff;stroke:#777;stroke-width:.792"
     d="m 43.604269,24.000062 a 19.604206,19.604156 0 0 1 -39.2084117,0 19.604206,19.604156 0 1 1 39.2084117,0 z"
     id="path4" />
  <path
     style="fill:#427fed;fill-opacity:0.94100001"
     d="M 12 12 L 12 30 L 20 30 L 20 34 L 17 34 L 17 36 L 31 36 L 31 34 L 28 34 L 28 30 L 36 30 L 36 12 L 12 12 z "
     id="path6" />
</svg>

<svg xmlns="http://www.w3.org/2000/svg" viewBox="0 0 48 48">
 <path d="m 43.604 24 a 19.604 19.604 0 0 1 -39.21 0 19.604 19.604 0 1 1 39.21 0 z" style="fill:#fff;stroke:#777;stroke-width:0.792"/>
 <path d="m 12 12 l 0 18 l 8 0 l 0 4 l -3 0 l 0 2 l 14 0 l 0 -2 l -3 0 l 0 -4 l 8 0 l 0 -18 l -24 0 z" style="fill:#427fed;fill-opacity:0.941"/>
</svg>
